X:1
T:Title
%%score { ( 1 2 ) | ( 3 4 ) }
L:1/8
Q:1/4=120
M:4/4
K:F
V:1 treble nm="Midi_20"
V:2 treble 
V:3 bass 
V:4 bass 
V:1
|:"^W. Austin""^Moderato"!mf!"^All this night bright angels sing" F2 G2 A2 B2 | c3 d c4 | %2
w: ||
w: ||
w: ||
 F2 G2 A2 B2 | c3 d c4 |"^5" !>!c3 c c2"^Sir Arthur Sullivan\n(1842-1900)" B2 | A3 A A4 | %6
w: ||||
w: ||||
w: ||||
"^cresc." G2 G2 c2 e2 |!f! g4 =B4 | c8 |"^10"!p! G2 F2 B4 | G4 G2 F2 | B4 G4 | %12
w: ||||||
w: ||||||
w: ||||||
 F2 G2"^cresc." A2 B2 | c3 d c4 |"^15"!f! B2 A2 G2 !courtesy!=F2 | (F4 G2) E2 | F8 :| %17
w: |||day * be|done."|
w: |||||
w: |||Sun * to|see!|
!p! F2 G2 A2 B2 | c3 d c4 |"^20" F2 G2 A2 B2 | c3 d c4 |!mf! e2 d2 c2 c2 | =B3 A ^G4 | %23
w: ||||||
w: ~~Hail! O Sun, O|bless- ed Light,|Sent in- to this|world by night;|Let Thy rays and|heav'n- ly pow'rs|
w: ||||||
"^dim." A2 A2 G2 E2 |"^25"!pp! G4 G4 | G8 | G2"^cresc." F2 B4 | G4 G2 F2 | B4 G4 | %29
w: ||||||
w: Shine in these dark|souls of|ours.|For, most du-|ly, Thou art|tru- ly|
w: ||||||
"^30"!f! F2 G2 A2 B2 | c3 d c4 |!ff! d2"^rall."[Q:1/4=118] g2[Q:1/4=115] f2[Q:1/4=112] F2 | %32
w: |||
w: God and man, we|do con- fess;|Hail, O Sun of|
w: |||
[Q:1/4=108] A4[Q:1/4=102] G4 |[Q:1/4=100] !fermata!F8 |] %34
w: ||
w: Right- eous-|ness!|
w: ||
V:2
|: F2 F2 F2 G2 | A3 B A4 | F2 F2 F2 F2 | E3 E F4 | !>!A3 A A2 F2 | !>!^F3 F F4 | G2 =F2 (EG) c2 | %7
w: ~All this night bright|an- gels sing,|Ne- ver was such|ca- rol- ling;|Hark! a voice which|loud- ly cries,|"Mor- tals, mor\- * tals,|
w: |||||||
w: ~Wake, O earth, wake|ev- ery- thing,|Wake and hear the|joy I bring:|Wake and joy for|all this night,|Heav'n and ev\- * ery|
 c4 G4 | G8 | E2 F2 E4 | E4 E2 F2 | E4 E4 | F2 F2 F2 G2 | A3 A A4 | F2 ^F2 G2 D2 | C6 C2 | C8 :| %17
w: wake and|rise.|Lo! to glad-|ness Turns your|sad- ness;|From the earth is|ris'n a Sun,|Shines all night, though|||
w: ||||||||||
w: twink- ling|hght,|All a- maz-|ing, Still stand|gaz- ing;|An- gels, Powers, and|all that be,|Wake, and joy this|||
 F2 F2 F2 F2 | G2 B2 A4 | F2 F2 F2 F2 | G2 B2 A4 | A2 ^G2 A2 E2 | E3 E D4 | C2 D2 G,2 G,2 | %24
w: |||||||
w: |||||||
w: |||||||
 C4 =B,4 | C8 | E2 F2 E4 | E4 E2 F2 | E4 E4 | F2 F2 F2 G2 | A3 A A4 | B2 G2 C2 F2 | F4 E4 | F8 |] %34
w: ||||||||||
w: ||||||||||
w: ||||||||||
V:3
|: A,2 B,2 C2 C2 | C3 C C4 | A,2 B,2 C2 F,2 | G,3 G, A,4 | !>!_E3 E E2 D2 | C3 C C4 | %6
w: ||||||
w: ||||||
"^cresc." =B,2 B,2 C2 C2 | (D2 E2) F4 | E8 | C2 C2 C4 | C4 C2 C2 | C4 C4 | A,2 B,2"^cresc." C2 D2 | %13
w: |||||||
w: |||||||
 _E3 E E4 | D2 C2 B,2 A,2 | (G,2 A,2) B,4 | A,8 :| A,2 B,2 C2 D2 | E2 C2 F4 | A,2 B,2 C2 D2 | %20
w: ||day * be|||||
w: ||Sun * to|||||
 E2 C2 F4 |!mf! C2 =B,2 A,2 E2 | D3 C =B,4 |"^dim." A,2 =B,2 C2 (G,E,) | (D,2 E,2) F,4 | E,8 | %26
w: ||||||
w: ||||||
 C2"^cresc." C2 C4 | C4 C2 C2 | C4 C4 | A,2 B,2 C2 D2 | _E3 E E4 | D2 =E2 F2 D2 | C4 B,4 | A,8 |] %34
w: ||||||||
w: ||||||||
V:4
|: F,2 F,2 F,2 F,2 | F,3 F, F,4 | F,2 F,2 F,2 D,2 | C,3 C, F,4 | !>!F,3 F, F,2 B,2 | %5
 !>!D,3 D, D,4 | G,2 G,2 G,2 G,2 | G,4 G,4 | C,8 | _B,2 A,2 G,4 | C,4 B,2 A,2 | G,4 C,4 | %12
 F,2 F,2 F,2 F,2 | F,3 F, F,4 | B,,2 D,2 G,,2 (A,,B,,) | C,4 C,4 | F,8 :| F,2 F,2 F,2 F,2 | %18
 F,3 F, F,4 | F,2 F,2 F,2 F,2 | F,3 F, F,4 | E,2 E,2 E,2 E,2 | E,3 E, E,4 | F,2 F,2 E,2 C,2 | %24
 G,,4 G,,4 | C,8 | _B,2 A,2 G,4 | C,4 B,2 A,2 | G,4 C,4 | F,2 F,2 F,2 F,2 | F,3 F, F,4 | %31
 B,2 B,2 A,2 B,2 | C4 C,4 | !fermata!F,8 |] %34

